resources/svg/lock-small-o.svg

<svg xmlns="http://www.w3.org/2000/svg" viewBox="0 0 15 15" fill="none"><path d="M5.5 7H9.5V6H5.5V7ZM10 7.5V10.5H11V7.5H10ZM9.5 11H5.5V12H9.5V11ZM5 10.5V7.5H4V10.5H5ZM5.5 11C5.22386 11 5 10.7761 5 10.5H4C4 11.3284 4.67157 12 5.5 12V11ZM10 10.5C10 10.7761 9.77614 11 9.5 11V12C10.3284 12 11 11.3284 11 10.5H10ZM9.5 7C9.77614 7 10 7.22386 10 7.5H11C11 6.67157 10.3284 6 9.5 6V7ZM5.5 6C4.67157 6 4 6.67157 4 7.5H5C5 7.22386 5.22386 7 5.5 7V6ZM6 6.5V5.5H5V6.5H6ZM9 5.5V6.5H10V5.5H9ZM7.5 4C8.32843 4 9 4.67157 9 5.5H10C10 4.11929 8.88071 3 7.5 3V4ZM6 5.5C6 4.67157 6.67157 4 7.5 4V3C6.11929 3 5 4.11929 5 5.5H6Z" fill="black"/></svg>

<svg xmlns="http://www.w3.org/2000/svg" viewBox="0 0 15 15" fill="none"><path d="M5.5 7h4V6h-4v1zm4.5.5v3h1v-3h-1zM9.5 11h-4v1h4v-1zM5 10.5v-3H4v3h1zm.5.5a.5.5 0 01-.5-.5H4A1.5 1.5 0 005.5 12v-1zm4.5-.5a.5.5 0 01-.5.5v1a1.5 1.5 0 001.5-1.5h-1zM9.5 7a.5.5 0 01.5.5h1A1.5 1.5 0 009.5 6v1zm-4-1A1.5 1.5 0 004 7.5h1a.5.5 0 01.5-.5V6zm.5.5v-1H5v1h1zm3-1v1h1v-1H9zM7.5 4A1.5 1.5 0 019 5.5h1A2.5 2.5 0 007.5 3v1zM6 5.5A1.5 1.5 0 017.5 4V3A2.5 2.5 0 005 5.5h1z" fill="currentColor"/></svg>
